resources/haticons/SVG/photo_camera_front.svg

<!-- Generated by IcoMoon.io -->
<svg version="1.1" xmlns="http://www.w3.org/2000/svg" width="24" height="24" viewBox="0 0 24 24">
<title>photo_camera_front</title>
<path d="M18 10.5l3.984-3.984v10.969l-3.984-3.984v4.5q0 0.844-0.586 1.43t-1.43 0.586h-12q-0.797 0-1.383-0.586t-0.586-1.43v-12q0-0.844 0.586-1.43t1.383-0.586h12q0.844 0 1.43 0.586t0.586 1.43v4.5zM15.984 9.703v-3.703h-12v12h12v-8.297zM9.984 12q-0.797 0-1.383-0.586t-0.586-1.43q0-0.797 0.586-1.383t1.383-0.586q0.844 0 1.43 0.586t0.586 1.383q0 0.844-0.586 1.43t-1.43 0.586zM9.984 12.984q0.516 0 1.195 0.141t1.313 0.375 1.078 0.609 0.445 0.891v0.984h-8.016v-0.984q0-0.516 0.422-0.891t1.078-0.609 1.336-0.375 1.148-0.141z"></path>
</svg>

<svg xmlns="http://www.w3.org/2000/svg" width="24" height="24"><path d="M18 10.5l3.984-3.984v10.969L18 13.501v4.5q0 .844-.586 1.43t-1.43.586h-12q-.797 0-1.383-.586t-.586-1.43v-12q0-.844.586-1.43t1.383-.586h12q.844 0 1.43.586T18 6.001v4.5zm-2.016-.797V6h-12v12h12V9.703zm-6 2.297q-.797 0-1.383-.586t-.586-1.43q0-.797.586-1.383t1.383-.586q.844 0 1.43.586T12 9.984q0 .844-.586 1.43T9.984 12zm0 .984q.516 0 1.195.141t1.313.375 1.078.609.445.891v.984H5.999V15q0-.516.422-.891t1.078-.609 1.336-.375 1.148-.141z"/></svg>
